X: 263
T:Monferrina Ian Roberts (8vo)
M:6/8
L:1/8
Q:1/8=135
C:Steve Mansfield 8/7/2000
R:Jig
N:A monferrina composed in honour of the attainment by Mr Ian Roberts of
N:a first class honours degree from the University of Oxford
Z:Steve Mansfield 8/7/2000
K:C
g|gag gag|c'2g efg|a2f def|ge(c c2)e|def efg|^fga d'c'b|aba c'ba|1(g3 g2
):|2g3|
|:cde|f2d e2c|d2(G G)ef|g2ef2d|e2(c c2)g|a2c' bc'd'|c'2g efg|agf efd|1c3
:|2(c3c2)||
<end>
<start>
